svg/u1f587.svg

<svg viewBox="0 0 128 128" xmlns="http://www.w3.org/2000/svg">
  <g>
    <path d="M72.98,8.03C59.04,12.16,52.3,25.17,56.6,39.66l14.83,49.97c0.26,0.88,6.66-1.01,6.39-1.9 L62.99,37.76c-2.69-9.06-0.06-19.8,11.88-23.34c7.97-2.37,17.91-0.11,21.89,13.32l19.52,65.78c2.25,7.59,1.41,17.48-8.38,20.38 c-10.6,3.15-15.32-8.56-16.86-13.74L79.61,61.57c-1.47-4.97-2.79-13.65,5-15.96c2.18-0.65,7.97-2.37,11.99,10.79l7.1,23.41 c0.24,0.78,6.68-0.96,6.38-1.94l-7.1-23.41c-2.22-7.28-7.8-18.94-20.26-15.24c-9.47,2.81-13.11,12.1-9.5,24.25l11.45,38.58 c4.32,14.57,13.96,21.56,25.15,18.24c11.57-3.43,16.86-15.22,12.87-28.67l-19.52-65.78C98.79,11.12,86.66,3.97,72.98,8.03z" fill="#82AEC0"/>
    <g>
      <path d="M81.66,47.07c-6.22,2.89-4.98,10.79-3.6,15.44l11.45,38.58c1.54,5.18,6.26,16.89,16.86,13.74 c1.6-0.47,2.95-1.14,4.1-1.94c-0.77,0.39-1.62,0.73-2.54,1.01c-10.6,3.15-15.32-8.56-16.86-13.74L79.61,61.57 C78.36,57.36,77.23,50.48,81.66,47.07z" fill="#2F7889"/>
      <path d="M69.31,16.98c-8.5,4.55-10.23,13.77-7.87,21.71l14.83,49.97c0.02,0.06,0,0.12-0.03,0.18 c0.97-0.39,1.67-0.81,1.58-1.12L62.99,37.76C60.79,30.33,62.17,21.78,69.31,16.98z" fill="#2F7889"/>
      <path d="M122.68,91.62l-19.52-65.78C98.79,11.12,86.66,3.97,72.98,8.03c-2.66,0.79-0.17,0.11,0.62-0.05 c12.69-2.59,23.9,4.95,28.01,18.8l19.52,65.78c3.29,11.08,0.27,21.03-7.37,26.11C122.53,113.95,126.19,103.42,122.68,91.62z" fill="#2F7889"/>
      <path d="M82.71,39.22c-1.73,0.51-3.27,1.25-4.6,2.18c0.94-0.5,1.95-0.92,3.05-1.24 c12.46-3.7,18.04,7.96,20.26,15.24l7.22,23.58c0,0,1.67-0.52,1.4-1.22l-5.78-19.26c-1.05-3.76-2.13-6.55-2.13-6.55 C99.46,44.82,93.82,35.92,82.71,39.22z" fill="#2F7889"/>
    </g>
    <g>
      <g>
        <path d="M73.48,15.59c-2.21,1.03-4.01,2.36-5.43,3.89c4.67,4.68,4.22,12.14,1.95,18l-24.88,63.94 c-5.08,13.05-15.17,14.48-22.92,11.46c-11.61-4.52-13.34-15.43-9.92-24.24l18.9-48.58c0.33-0.86-5.88-3.28-6.21-2.42L6.08,86.23 c-5.48,14.08,0.16,27.6,13.71,32.87c13.3,5.18,25.98-0.96,31.55-15.26L76.22,39.9C79.89,30.47,78.67,21.5,73.48,15.59z" fill="#94D1E0"/>
        <path d="M66.79,10.7c0,0-0.68-0.3-1.03-0.43C54.88,6.03,44.7,12.2,39.19,26.37L24.6,63.87 c-4.6,11.81-1.74,21.37,7.46,24.96c12.11,4.71,18.64-6.44,21.45-13.52l9.01-22.75c0.38-0.95-5.9-3.21-6.2-2.46l-9.01,22.74 c-5.08,12.78-10.71,10.59-12.83,9.76c-7.57-2.95-5.55-11.49-3.67-16.32l14.59-37.5c1.79-4.59,6.69-14.37,15.35-13.01 C60.76,15.77,63.58,12.54,66.79,10.7z" fill="#94D1E0"/>
      </g>
      <g>
        <path d="M29.16,87.35c0.89,0.56,1.85,1.06,2.91,1.47c9.93,3.86,16.1-2.93,19.55-9.4 c0,0,1.34-2.69,2.89-6.61c1.55-3.92,7.87-19.71,8.02-20.25c0.16-0.54-1.55-1.31-1.55-1.31l-9.17,23.13 C49,81.44,42.47,92.6,30.36,87.89C29.94,87.72,29.55,87.54,29.16,87.35z" fill="#2F7889"/>
        <path d="M61.12,15.35c-9.98-3.44-15.49,7.54-17.42,12.5l-14.59,37.5c-1.85,4.76-3.84,13.12,3.35,16.18 c-5.13-3.59-3.33-10.91-1.64-15.25l14.59-37.5c1.79-4.59,6.69-14.37,15.35-13.01L61.12,15.35z" fill="#2F7889"/>
        <path d="M29.49,39.13l-18.9,48.58c-3.25,8.35-1.85,18.57,8.17,23.47c-8.46-5.18-9.51-14.69-6.46-22.53 l18.9-48.58c0.12-0.31-0.57-0.8-1.56-1.29C29.63,38.78,29.55,38.97,29.49,39.13z" fill="#2F7889"/>
      </g>
    </g>
    <g>
      <polygon points="73.3,14.2 73.3,14.2 73.3,14.2 " fill="#2F7889"/>
      <path d="M74.22,16.48c-0.21-0.29-1.12-1.46-1.12-1.46c-0.05,0.02-3.87,1.46-5.87,3.6 c0,0,1.4,1.33,2.32,2.67c0,0,0.11-1.58,1.74-2.17c3.29-1.19,4.45,2.85,4.62,3.51c1.25,4.86,0.85,10.5-1.41,16.33l-24.88,63.94 c-5.57,14.3-18.25,20.44-31.55,15.26c-0.84-0.33-1.64-0.68-2.41-1.07c1.28,0.76,2.65,1.43,4.12,2 c13.3,5.18,25.98-0.96,31.55-15.26L76.22,39.9C79.7,30.94,78.78,22.17,74.22,16.48z" fill="#2F7889"/>
    </g>
    <path d="M64.49,66.01l1.41,4.99c0,0-0.6-2.35,1.03-4.22c1.29-1.48,2.44-1.39,2.44-1.39s-1.35-7.84-1.35-7.76 S64.49,66.01,64.49,66.01z" fill="#2F7889"/>
    <path d="M57.3,36.45c-0.64-3.44-1.98-12.52,4.18-19.56c0.48-0.55,2.35-2.6,3.2-1.3 c0.79,1.21-0.87,2.44-1.3,2.93c-5.42,6.2-4.37,15.4-3.82,18.43c0.12,0.64,0.49,1.8-0.39,1.81C58.04,38.78,57.44,37.17,57.3,36.45z " fill="#B9E4EA"/>
    <path d="M37.72,36.88c-0.84-0.12-0.71-1.5-0.47-2.15c1-2.65,3.26-9.37,5.78-13.8 c2.36-4.16,4.38-5.95,6.03-7.23c1.43-1.11,2.32-0.96,2.71-0.1c0.29,0.64-0.69,1.72-1.2,2.1c-1.48,1.12-3.23,2.71-5.36,6.46 c-2.4,4.22-4.9,10.61-5.88,13.21C39.08,36.01,38.56,36.99,37.72,36.88z" fill="#D6F1F2"/>
    <path d="M30.73,84.65c0.31-1.56,2.51-1.03,3.09-0.83c1.34,0.48,3.96,1.13,6.68,0.15 c2.95-1.06,4.71-3.44,6.58-7.61c0.27-0.6,0.98-0.88,1.6-0.63h0c0.66,0.27,0.97,1.04,0.67,1.69c-2.16,4.81-5.03,8.08-8.72,9.19 C35.93,88.04,30.21,87.28,30.73,84.65z" fill="#D6F1F2"/>
    <path d="M100.77,119.35c-9.24-1.61-13.45-12.59-14.65-16.32c-0.21-0.67-1.42-4.09,0.26-4.4 c1.45-0.26,1.93,3.03,2.14,3.65c1.11,3.34,4.98,13.07,12.72,14.6c3.26,0.65,5.85-0.56,5.56,0.44 C106.28,119.11,102.55,119.67,100.77,119.35z" fill="#B9E4EA"/>
    <path d="M74.17,62.78c-1.4-5.8-1.92-11.37,0.73-15.82c0.38-0.64,1.24-0.78,1.83-0.33l0,0 c0.5,0.39,0.63,1.08,0.31,1.62c-2.18,3.67-2.23,6.09-1.3,12.52c0.41,2.82,1.03,5.52,0.23,5.79 C75.39,66.76,74.53,64.26,74.17,62.78z" fill="#B9E4EA"/>
  </g>
</svg>

<svg viewBox="0 0 128 128" xmlns="http://www.w3.org/2000/svg">
  <defs/>
  <path d="M72.98,8.03 C59.04,12.16 52.3,25.17 56.6,39.66 L71.43,89.63 C71.69,90.51 78.09,88.62 77.82,87.73 L62.99,37.76 C60.3,28.7 62.93,17.96 74.87,14.42 C82.84,12.05 92.78,14.31 96.76,27.74 L116.28,93.52 C118.53,101.11 117.69,111 107.9,113.9 C97.3,117.05 92.58,105.34 91.04,100.16 L79.61,61.57 C78.14,56.6 76.82,47.92 84.61,45.61 C86.79,44.96 92.58,43.24 96.6,56.4 L103.7,79.81 C103.94,80.59 110.38,78.85 110.08,77.87 L102.98,54.46 C100.76,47.18 95.18,35.52 82.72,39.22 C73.25,42.03 69.61,51.32 73.22,63.47 L84.67,102.05 C88.99,116.62 98.63,123.61 109.82,120.29 C121.39,116.86 126.68,105.07 122.69,91.62 L103.17,25.84 C98.79,11.12 86.66,3.97 72.98,8.03 Z" fill="#82AEC0"/>
  <path d="M81.66,47.07 C75.44,49.96 76.68,57.86 78.06,62.51 L89.51,101.09 C91.05,106.27 95.77,117.98 106.37,114.83 C107.97,114.36 109.32,113.69 110.47,112.89 C109.7,113.28 108.85,113.62 107.93,113.9 C97.33,117.05 92.61,105.34 91.07,100.16 L79.61,61.57 C78.36,57.36 77.23,50.48 81.66,47.07 Z" fill="#2F7889"/>
  <path d="M69.31,16.98 C60.81,21.53 59.08,30.75 61.44,38.69 L76.27,88.66 C76.29,88.72 76.27,88.78 76.24,88.84 C77.21,88.45 77.91,88.03 77.82,87.72 L62.99,37.76 C60.79,30.33 62.17,21.78 69.31,16.98 Z" fill="#2F7889"/>
  <path d="M122.68,91.62 L103.16,25.84 C98.79,11.12 86.66,3.97 72.98,8.03 C70.32,8.82 72.81,8.14 73.6,7.98 C86.29,5.39 97.5,12.93 101.61,26.78 L121.13,92.56 C124.42,103.64 121.4,113.59 113.76,118.67 C122.53,113.95 126.19,103.42 122.68,91.62 Z" fill="#2F7889"/>
  <path d="M82.71,39.22 C80.98,39.73 79.44,40.47 78.11,41.4 C79.05,40.9 80.06,40.48 81.16,40.16 C93.62,36.46 99.2,48.12 101.42,55.4 L108.64,78.98 C108.64,78.98 110.31,78.46 110.04,77.76 L104.26,58.5 C103.21,54.74 102.13,51.95 102.13,51.95 C99.46,44.82 93.82,35.92 82.71,39.22 Z" fill="#2F7889"/>
  <path d="M73.48,15.59 C71.27,16.62 69.47,17.95 68.05,19.48 C72.72,24.16 72.27,31.62 70,37.48 L45.12,101.42 C40.04,114.47 29.95,115.9 22.2,112.88 C10.59,108.36 8.86,97.45 12.28,88.64 L31.18,40.06 C31.51,39.2 25.3,36.78 24.97,37.64 L6.08,86.23 C0.6,100.31 6.24,113.83 19.79,119.1 C33.09,124.28 45.77,118.14 51.34,103.84 L76.22,39.9 C79.89,30.47 78.67,21.5 73.48,15.59 Z" fill="#94D1E0"/>
  <path d="M66.79,10.7 C66.79,10.7 66.11,10.4 65.76,10.27 C54.88,6.03 44.7,12.2 39.19,26.37 L24.6,63.87 C20,75.68 22.86,85.24 32.06,88.83 C44.17,93.54 50.7,82.39 53.51,75.31 L62.52,52.56 C62.9,51.61 56.62,49.35 56.32,50.1 L47.31,72.84 C42.23,85.62 36.6,83.43 34.48,82.6 C26.91,79.65 28.93,71.11 30.81,66.28 L45.4,28.78 C47.19,24.19 52.09,14.41 60.75,15.77 C60.76,15.77 63.58,12.54 66.79,10.7 Z" fill="#94D1E0"/>
  <path d="M29.16,87.35 C30.05,87.91 31.01,88.41 32.07,88.82 C42,92.68 48.17,85.89 51.62,79.42 C51.62,79.42 52.96,76.73 54.51,72.81 C56.06,68.89 62.38,53.1 62.53,52.56 C62.69,52.02 60.98,51.25 60.98,51.25 L51.81,74.38 C49,81.44 42.47,92.6 30.36,87.89 C29.94,87.72 29.55,87.54 29.16,87.35 Z" fill="#2F7889"/>
  <path d="M61.12,15.35 C51.14,11.91 45.63,22.89 43.7,27.85 L29.11,65.35 C27.26,70.11 25.27,78.47 32.46,81.53 C27.33,77.94 29.13,70.62 30.82,66.28 L45.41,28.78 C47.2,24.19 52.1,14.41 60.76,15.77 L61.12,15.35 Z" fill="#2F7889"/>
  <path d="M29.49,39.13 L10.59,87.71 C7.34,96.06 8.74,106.28 18.76,111.18 C10.3,106 9.25,96.49 12.3,88.65 L31.2,40.07 C31.32,39.76 30.63,39.27 29.64,38.78 C29.63,38.78 29.55,38.97 29.49,39.13 Z" fill="#2F7889"/>
  <path d="M74.22,16.48 C74.01,16.19 73.1,15.02 73.1,15.02 C73.05,15.04 69.23,16.48 67.23,18.62 C67.23,18.62 68.63,19.95 69.55,21.29 C69.55,21.29 69.66,19.71 71.29,19.12 C74.58,17.93 75.74,21.97 75.91,22.63 C77.16,27.49 76.76,33.13 74.5,38.96 L49.62,102.9 C44.05,117.2 31.37,123.34 18.07,118.16 C17.23,117.83 16.43,117.48 15.66,117.09 C16.94,117.85 18.31,118.52 19.78,119.09 C33.08,124.27 45.76,118.13 51.33,103.83 L76.22,39.9 C79.7,30.94 78.78,22.17 74.22,16.48 Z" fill="#2F7889"/>
  <path d="M64.49,66.01 L65.9,71 C65.9,71 65.3,68.65 66.93,66.78 C68.22,65.3 69.37,65.39 69.37,65.39 C69.37,65.39 68.02,57.55 68.02,57.63 C68.02,57.71 64.49,66.01 64.49,66.01 Z" fill="#2F7889"/>
  <path d="M57.3,36.45 C56.66,33.01 55.32,23.93 61.48,16.89 C61.96,16.34 63.83,14.29 64.68,15.59 C65.47,16.8 63.81,18.03 63.38,18.52 C57.96,24.72 59.01,33.92 59.56,36.95 C59.68,37.59 60.05,38.75 59.17,38.76 C58.04,38.78 57.44,37.17 57.3,36.45 Z" fill="#B9E4EA"/>
  <path d="M37.72,36.88 C36.88,36.76 37.01,35.38 37.25,34.73 C38.25,32.08 40.51,25.36 43.03,20.93 C45.39,16.77 47.41,14.98 49.06,13.7 C50.49,12.59 51.38,12.74 51.77,13.6 C52.06,14.24 51.08,15.32 50.57,15.7 C49.09,16.82 47.34,18.41 45.21,22.16 C42.81,26.38 40.31,32.77 39.33,35.37 C39.08,36.01 38.56,36.99 37.72,36.88 Z" fill="#D6F1F2"/>
  <path d="M30.73,84.65 C31.04,83.09 33.24,83.62 33.82,83.82 C35.16,84.3 37.78,84.95 40.5,83.97 C43.45,82.91 45.21,80.53 47.08,76.36 C47.35,75.76 48.06,75.48 48.68,75.73 L48.68,75.73 C49.34,76 49.65,76.77 49.35,77.42 C47.19,82.23 44.32,85.5 40.63,86.61 C35.93,88.04 30.21,87.28 30.73,84.65 Z" fill="#D6F1F2"/>
  <path d="M100.77,119.35 C91.53,117.74 87.32,106.76 86.12,103.03 C85.91,102.36 84.7,98.94 86.38,98.63 C87.83,98.37 88.31,101.66 88.52,102.28 C89.63,105.62 93.5,115.35 101.24,116.88 C104.5,117.53 107.09,116.32 106.8,117.32 C106.28,119.11 102.55,119.67 100.77,119.35 Z" fill="#B9E4EA"/>
  <path d="M74.17,62.78 C72.77,56.98 72.25,51.41 74.9,46.96 C75.28,46.32 76.14,46.18 76.73,46.63 L76.73,46.63 C77.23,47.02 77.36,47.71 77.04,48.25 C74.86,51.92 74.81,54.34 75.74,60.77 C76.15,63.59 76.77,66.29 75.97,66.56 C75.39,66.76 74.53,64.26 74.17,62.78 Z" fill="#B9E4EA"/>
</svg>
